X:104
T:The cruel Father
T:pretty. same as No. 33
N:[in Murdoch Henderson's handwriting:]
N:same treble but different bass from no. 33
Z:Jack Campin - http://www.campin.me.uk
S:Blaikie MS (NLS MS.1578) p31, Blaikie #98
M:3/4
L:1/8
V:1 midi program 1 74
V:2 midi program 1 46 bass middle = d transpose -24
N:extra quaver rest at the end in both parts in the MS
Q:1/4=80
K:F
[V:1] F2|Ac  B2  AG|FE  F2 zF|Ac d3   B|Ac3
[V:2] z2|f2  c'2 c2|f2  f2 z2|f2 b2  g2|f2 z2
%
[V:1] zc|ff _e2  d2|c>B A2 zF|Ac B2  GF|EF3  |]
[V:2] z2|f2  ga  b2|a>g f2 z2|f2 c'2 c2|f2 z2|]
W:Transcription (c) Jack Campin 2009, no mirroring or republication without permission

